X:154
T:New 12th Night. VWMLa.154
%%VWML:Anon2-3049-p94-0
F:http://www.vwml.org/record/Anon2/3049/p94
R:reel
S:Anon. MS, late 18thC, Vaughan Williams Mem. Library
O:England;Yorkshire
Z:vmp/efdss.Simon Wilson. Reviewed PJH 2008.
M:2/4
L:1/8
Q:1/4=140
K:F
FFFG|AFAc|dcdf|c2ca|(gf).f.a|(gf).f.c|\
d>e f/c/B/A/|A2G2|FFFG|AFAc|dcdf|c2ca|
(gf).f.a|(gf).f.c|dfeg|f2f2||f2(ef)|(ga/b/)a2|\
f2(ef)|(ga/b/)a2|dfbd|cfaf|e/f/g/a/ b/a/g/f/|
g/f/e/d/ c/B/A/G/|FFFG|AFAc|dcdf|c2ca|\
(gf).f.a|(gf).f.c|dfeg|f2f2|]
